packages/icons/src/svg/32/logical-partition.svg

<?xml version="1.0" encoding="UTF-8"?>
<svg id="icon" xmlns="http://www.w3.org/2000/svg" width="32" height="32" viewBox="0 0 32 32">
  <defs>
    <style>
      .cls-1 {
        fill: none;
      }
    </style>
  </defs>
  <circle cx="9" cy="7" r="1"/>
  <path d="M27,22v-4c0-1.1046-.8954-2-2-2h-8v-4h9c1.1046,0,2-.8954,2-2V4c0-1.1046-.8954-2-2-2H6c-1.1046,0-2,.8954-2,2v6c0,1.1046,.8954,2,2,2H15v4H7c-1.1046,0-2,.8954-2,2v4h-1c-1.1046,0-2,.8954-2,2v4c0,1.1046,.8954,2,2,2h4c1.1046,0,2-.8954,2-2v-4c0-1.1046-.8954-2-2-2h-1v-4H15v4h-1c-1.1046,0-2,.8954-2,2v4c0,1.1046,.8954,2,2,2h4c1.1046,0,2-.8954,2-2v-4c0-1.1046-.8954-2-2-2h-1v-4h8v4h-1c-1.1046,0-2,.8954-2,2v4c0,1.1046,.8954,2,2,2h4c1.1046,0,2-.8954,2-2v-4c0-1.1046-.8954-2-2-2h-1Zm-19,6H4v-4h4v4Zm10-4v4h-4v-4h4ZM6,10V4H26v6H6ZM28,28h-4v-4h4v4Z"/>
  <rect id="_Transparent_Rectangle_" data-name="&amp;lt;Transparent Rectangle&amp;gt;" class="cls-1" width="32" height="32"/>
</svg>

<svg id="icon" xmlns="http://www.w3.org/2000/svg" width="32" height="32" viewBox="0 0 32 32">
  <defs>
    <style>
      .cls-1 {
        fill: none;
      }
    </style>
  </defs>
  <circle cx="9" cy="7" r="1"/>
  <path d="M27,22V18a2,2,0,0,0-2-2H17V12h9a2,2,0,0,0,2-2V4a2,2,0,0,0-2-2H6A2,2,0,0,0,4,4v6a2,2,0,0,0,2,2h9v4H7a2,2,0,0,0-2,2v4H2v8h8V22H7V18h8v4H12v8h8V22H17V18h8v4H22v8h8V22ZM8,28H4V24H8Zm10-4v4H14V24ZM6,10V4H26v6ZM28,28H24V24h4Z" transform="translate(0 0)"/>
  <rect id="_Transparent_Rectangle_" data-name="&lt;Transparent Rectangle&gt;" class="cls-1" width="32" height="32"/>
</svg>
